brandFactory_export/1.Light/Persona_1Light.svg

<?xml version="1.0" encoding="UTF-8"?>
<svg width="24px" height="24px" viewBox="0 0 24 24" version="1.1" xmlns="http://www.w3.org/2000/svg" xmlns:xlink="http://www.w3.org/1999/xlink">
    <title>1.Light/Persona_1Light</title>
    <g id="Symbols" stroke="none" stroke-width="1" fill="none" fill-rule="evenodd">
        <g id="1.Light/Persona_1Light" fill="#5CB615" fill-rule="nonzero">
            <path d="M10.7260504,1.41176471 C10.4134454,1.70420168 10.2588235,2.16806723 10.2588235,2.79327731 C10.2588235,4.02016807 10.8470588,4.59495798 12.1109244,4.59495798 C13.3781513,4.59495798 13.9697479,4.02352941 13.9697479,2.79327731 C13.9697479,2.17142857 13.8117647,1.70756303 13.4991597,1.41512605 C13.1966387,1.12941176 12.7327731,0.98487395 12.1142857,0.98487395 C11.492437,0.98487395 11.0285714,1.12941176 10.7260504,1.41176471 L10.7260504,1.41176471 Z M12.1109244,5.57647059 C10.292437,5.57647059 9.24705882,4.56134454 9.24705882,2.79327731 C9.24705882,1.89243697 9.5092437,1.18991597 10.0235294,0.705882353 C10.5176471,0.238655462 11.2201681,0 12.1109244,0 C12.9983193,0 13.7008403,0.238655462 14.1983193,0.705882353 C14.7159664,1.18991597 14.9781513,1.89243697 14.9781513,2.79327731 C14.9781513,4.56134454 13.9327731,5.57647059 12.1109244,5.57647059 L12.1109244,5.57647059 Z M17.3243697,15.4016807 C17.6605042,15.3176471 17.8655462,14.9781513 17.7848739,14.6420168 C17.7848739,14.6386555 17.7848739,14.6352941 17.7815126,14.6319328 L16.3462185,9.48571429 C16.3260504,9.44201681 16.3092437,9.39495798 16.2957983,9.34789916 C16.2890756,9.32436975 16.2823529,9.30084034 16.2756303,9.28067227 C16.0605042,8.24201681 15.1058824,7.48907563 14.010084,7.48907563 L10.8134454,7.48907563 C9.7210084,7.48907563 8.76638655,8.24201681 8.54789916,9.28067227 C8.54453782,9.29747899 8.53781513,9.31092437 8.53445378,9.32436975 C8.52773109,9.36134454 8.51428571,9.39831933 8.49411765,9.43529412 L7.04201681,14.6386555 C6.95462185,14.9714286 7.15630252,15.3142857 7.48907563,15.4016807 L7.49579832,15.4016807 C7.6605042,15.4487395 7.83529412,15.4285714 7.98319328,15.3411765 C8.12773109,15.2638655 8.23529412,15.1294118 8.2789916,14.9714286 L8.91764706,11.5327731 C8.96470588,11.2806723 9.18655462,11.1159664 9.46218487,11.1294118 C9.7210084,11.1495798 9.91932773,11.3613445 9.92268908,11.6201681 L9.92268908,22.0067227 C9.92268908,22.3529412 10.2084034,22.6386555 10.5579832,22.6386555 C10.907563,22.6386555 11.1932773,22.3563025 11.1966387,22.0067227 L11.1966387,15.8184874 C11.1966387,15.5462185 11.4218487,15.3277311 11.7008403,15.3277311 L13.1260504,15.3277311 C13.405042,15.3277311 13.6336134,15.5495798 13.6336134,15.8184874 L13.6336134,22.010084 C13.6336134,22.3596639 13.9193277,22.6420168 14.2722689,22.6420168 C14.6218487,22.6420168 14.907563,22.3596639 14.907563,22.010084 L14.907563,11.6235294 C14.907563,11.3680672 15.1092437,11.1563025 15.3680672,11.1327731 C15.6403361,11.1226891 15.8621849,11.2840336 15.9092437,11.5361345 L16.5546218,15.0084034 C16.5882353,15.1260504 16.6957983,15.2571429 16.8436975,15.3411765 C16.9882353,15.4252101 17.1630252,15.4453782 17.3243697,15.4016807 L17.3243697,15.4016807 Z M18.7596639,14.3764706 C18.9882353,15.2369748 18.4739496,16.1210084 17.6134454,16.3462185 C17.6067227,16.3462185 17.6033613,16.3495798 17.5966387,16.3495798 C16.9882353,16.5142857 16.3394958,16.3260504 15.9159664,15.8588235 L15.9159664,22.0067227 C15.9159664,22.897479 15.1764706,23.6235294 14.2689076,23.6235294 C13.3579832,23.6235294 12.6218487,22.897479 12.6218487,22.0067227 L12.6218487,16.3092437 L12.2184874,16.3092437 L12.2184874,22.010084 C12.2184874,22.9008403 11.4789916,23.6268908 10.5714286,23.6268908 C9.66386555,23.6268908 8.92436975,22.9008403 8.92436975,22.010084 L8.92436975,15.8588235 C8.50084034,16.3294118 7.8487395,16.5176471 7.24033613,16.3495798 C6.37983193,16.1310924 5.85882353,15.2571429 6.07731092,14.3932773 C6.07731092,14.389916 6.08067227,14.3865546 6.08067227,14.3831933 L7.51932773,9.2302521 C7.53277311,9.17310924 7.55294118,9.11596639 7.57647059,9.06218487 C7.89915966,7.57647059 9.26386555,6.50420168 10.8268908,6.50420168 L14.0235294,6.50420168 C15.5865546,6.50420168 16.9478992,7.57647059 17.2705882,9.05546218 C17.3008403,9.12605042 17.3243697,9.19327731 17.3378151,9.2605042 L18.7596639,14.3764706 L18.7596639,14.3764706 Z" id="Persona_1Light"></path>
        </g>
    </g>
</svg>

<svg width="24" height="24" viewBox="0 0 24 24" xmlns="http://www.w3.org/2000/svg"><path d="M10.726 1.412c-.313.292-.467.756-.467 1.381 0 1.227.588 1.802 1.852 1.802 1.267 0 1.859-.571 1.859-1.802 0-.622-.158-1.085-.47-1.378-.303-.286-.767-.43-1.386-.43-.622 0-1.085.144-1.388.427zm1.385 4.164c-1.819 0-2.864-1.015-2.864-2.783 0-.9.262-1.603.777-2.087C10.518.239 11.22 0 12.11 0c.887 0 1.59.239 2.087.706.518.484.78 1.186.78 2.087 0 1.768-1.045 2.783-2.867 2.783zm5.213 9.826a.631.631 0 00.46-.76c0-.003 0-.007-.002-.01l-1.436-5.146a.963.963 0 01-.05-.138l-.02-.067c-.215-1.039-1.17-1.792-2.266-1.792h-3.197c-1.092 0-2.047.753-2.265 1.792-.003.016-.01.03-.014.043a.37.37 0 01-.04.111L7.042 14.64a.627.627 0 00.447.763h.007c.165.047.34.027.487-.06a.603.603 0 00.296-.37l.639-3.44c.047-.251.269-.416.544-.403.259.02.457.232.46.491v10.387a.636.636 0 001.275 0v-6.189c0-.272.225-.49.504-.49h1.425c.279 0 .508.222.508.49v6.192c0 .35.285.632.638.632.35 0 .636-.282.636-.632V11.624a.5.5 0 01.46-.491c.272-.01.494.151.541.403l.646 3.472a.614.614 0 00.289.333c.144.084.319.104.48.06zm1.436-1.026a1.61 1.61 0 01-1.147 1.97c-.006 0-.01.004-.016.004a1.675 1.675 0 01-1.681-.491v6.148c0 .89-.74 1.617-1.647 1.617-.911 0-1.647-.727-1.647-1.617v-5.698h-.404v5.701c0 .89-.739 1.617-1.647 1.617-.907 0-1.647-.726-1.647-1.617V15.86a1.667 1.667 0 01-1.684.49 1.609 1.609 0 01-1.163-1.956c0-.003.004-.006.004-.01L7.519 9.23a.99.99 0 01.057-.168c.323-1.486 1.688-2.558 3.25-2.558h3.198c1.563 0 2.924 1.072 3.247 2.551.03.071.053.138.067.206l1.422 5.115z" fill="#5CB615" fill-rule="nonzero"/></svg>
